public/assets/apply/stepper/corporation.svg

<svg width="74" height="67" viewBox="0 0 74 67" fill="none" xmlns="http://www.w3.org/2000/svg">
<path d="M12.5453 0.790188C12.1695 0.891361 11.7504 1.0648 11.6059 1.16597C10.941 1.67183 10.3629 2.29332 10.1172 2.75581C9.97266 3.03042 8.44063 7.06285 6.7207 11.7168C5.00078 16.3707 3.49766 20.3886 3.38203 20.6343C3.20859 21.0824 3.13633 21.1113 2.5293 21.1113C1.76328 21.1113 1.25742 21.3425 0.69375 21.9351C0.115625 22.5421 0 23.0046 0 24.6957C0 25.9242 0.0578125 26.3433 0.274609 26.748C0.679297 27.4996 1.45977 28.0632 2.22578 28.15L2.89062 28.2367L2.91953 40.3628L2.96289 52.5035L3.30977 52.7781C3.74336 53.1394 4.20586 53.125 4.68281 52.7492L5.05859 52.4601V40.3195V28.1933H13.8461C21.6074 28.1933 22.7203 28.1644 23.3563 27.9621C23.9922 27.7453 24.7293 27.0515 30.5395 21.2703L37 14.8386L43.475 21.2703C49.2707 27.066 50.0078 27.7453 50.6437 27.9621C51.2797 28.1644 52.407 28.1933 60.1539 28.1933H68.9414V29.8554C68.9414 31.3296 68.9703 31.5464 69.2305 31.8066C69.6641 32.2402 70.4301 32.1968 70.8059 31.7199C71.066 31.3875 71.1094 31.1273 71.1094 29.7832V28.2367L71.7598 28.1644C72.5836 28.0632 73.3641 27.4851 73.7254 26.6902C73.9277 26.2421 74 25.7507 74 24.6234C74 23.0046 73.8844 22.5421 73.3063 21.9351C72.7426 21.3425 72.2367 21.1113 71.4707 21.1113C70.8492 21.1113 70.7914 21.0824 70.6035 20.6343C70.5023 20.3742 68.9992 16.3562 67.2793 11.7168C65.5449 7.06285 64.0273 3.03042 63.8828 2.74136C63.5504 2.11988 62.5965 1.22378 61.8738 0.905815C61.3969 0.674564 59.3301 0.66011 37.2891 0.631207C18.2109 0.616753 13.0801 0.645657 12.5453 0.790188ZM61.0355 2.95816C61.2957 3.05933 61.6137 3.27613 61.7438 3.42066C61.9461 3.65191 68.3633 20.6777 68.3633 20.9957C68.3633 21.0535 64.9957 21.1113 60.891 21.1113H53.4043L46.1055 13.8414C38.243 6.00777 38.5176 6.22456 37 6.22456C35.4824 6.22456 35.757 6.00777 27.8945 13.8414L20.5957 21.1113H13.109C8.90312 21.1113 5.63672 21.0535 5.63672 20.9812C5.63672 20.6632 12.0395 3.66636 12.2563 3.42066C12.8633 2.74136 11.9238 2.77027 36.9711 2.75581C56.5695 2.75581 60.6453 2.78472 61.0355 2.95816ZM45.0504 15.7925L52.4648 23.207L62.1195 23.2793L71.7598 23.3515V24.6523V25.9531L61.657 25.9964C51.7422 26.0253 51.5543 26.0253 51.0918 25.7363C50.8316 25.5773 47.7965 22.5855 44.3566 19.0878C40.9168 15.5902 37.8961 12.5839 37.6215 12.425C37.2746 12.2082 37.0145 12.1503 36.7398 12.2226C36.4797 12.2804 33.9938 14.6652 29.4699 19.1746L22.6047 26.0253L12.4152 25.9964L2.24023 25.9531V24.6523V23.3515L11.8805 23.2793L21.5352 23.207L28.9496 15.7925L36.3496 8.39253H37H37.6504L45.0504 15.7925Z" fill="#4A4A4A"/>
<path d="M35.15 22.3977C33.6613 22.9469 32.5773 23.9008 31.8836 25.2738C30.4238 28.15 31.6813 31.691 34.6441 33.0785C35.3957 33.4254 35.6559 33.4688 37 33.4688C38.3441 33.4688 38.6043 33.4254 39.3559 33.0785C41.7117 31.9801 43.0992 29.3785 42.6512 26.9215C42.3043 25.0426 41.1336 23.4672 39.4715 22.6723C38.2285 22.0652 36.3641 21.9496 35.15 22.3977ZM38.532 24.6379C39.4281 25.057 40.1219 25.852 40.3965 26.8059C40.6711 27.702 40.6711 27.9621 40.382 28.9016C39.9484 30.3902 38.6043 31.373 37 31.373C35.9738 31.373 35.3813 31.1562 34.6297 30.5059C33.5891 29.5809 33.1844 28.2223 33.5891 26.8637C34.2105 24.7535 36.523 23.6984 38.532 24.6379Z" fill="#4A4A4A"/>
<path d="M69.2305 35.4199C68.9414 35.709 68.9414 35.8969 68.9414 47.7773V59.8457H57.5957H46.25V48.6734V37.4867L45.9176 37.1832L45.5852 36.8652H36.9855H28.3715L28.068 37.1977L27.75 37.5301V48.6879V59.8457H16.4043H5.05859V58.198C5.05859 56.5793 5.04414 56.5359 4.68281 56.2469C4.17695 55.8422 3.68555 55.8711 3.25195 56.3047C2.90508 56.6371 2.89062 56.7527 2.89062 58.2559V59.8457H1.95117C0.953906 59.8457 0.245703 60.0914 0.0867188 60.4961C0.0433594 60.6262 0 61.9992 0 63.5312C0 66.0605 0.0289063 66.3496 0.274609 66.6531L0.549219 67H37H73.4508L73.7254 66.6531C73.9711 66.3496 74 66.0605 74 63.5312C74 61.9992 73.9566 60.6262 73.9133 60.4961C73.7543 60.0914 73.0461 59.8457 72.0488 59.8457H71.1094V47.8641C71.1094 35.9691 71.1094 35.8969 70.8059 35.5066C70.4301 35.0297 69.6641 34.9863 69.2305 35.4199ZM44.082 49.4395V59.8457H37H29.918V55.9578V52.0699L30.9441 52.0121C31.8113 51.9688 32.0137 51.8965 32.2449 51.6219C32.6063 51.1738 32.5918 50.6246 32.2016 50.2055C31.9414 49.9164 31.7535 49.873 30.9008 49.873H29.918V44.4531V39.0332H37H44.082V49.4395ZM71.832 63.459V64.9043H37H2.16797V63.459V62.0137H37H71.832V63.459Z" fill="#4A4A4A"/>
<path d="M32.982 41.5914C32.4906 41.7793 32.375 42.4441 32.375 45.0023C32.375 47.3293 32.4039 47.5461 32.6785 47.9074L32.9676 48.2832H37H41.0324L41.3215 47.9074C41.5961 47.5461 41.625 47.3293 41.625 45.0023C41.625 42.3863 41.5094 41.7937 40.9746 41.577C40.6855 41.4758 33.2566 41.4758 32.982 41.5914ZM39.457 44.8867V46.1152H37H34.543V44.8867V43.6582H37H39.457V44.8867Z" fill="#4A4A4A"/>
<path d="M8.09375 37.1543C7.80469 37.4434 7.80469 37.6313 7.80469 47.5605C7.80469 57.4898 7.80469 57.6777 8.09375 57.9668C8.36836 58.2414 8.5707 58.2559 16.0574 58.2559C20.7836 58.2559 23.8188 58.198 23.9922 58.1113C24.5414 57.8223 24.5703 57.3598 24.5703 47.5605C24.5703 37.7613 24.5414 37.2988 23.9922 37.0098C23.8188 36.923 20.7836 36.8652 16.0574 36.8652C8.5707 36.8652 8.36836 36.8797 8.09375 37.1543ZM15.0312 41.5625V44.0918H12.502H9.97266V41.5625V39.0332H12.502H15.0312V41.5625ZM22.4023 41.5625V44.0918H19.8008H17.1992V41.5625V39.0332H19.8008H22.4023V41.5625ZM15.0312 48.8613V51.4629H12.502H9.97266V48.8613V46.2598H12.502H15.0312V48.8613ZM22.3301 48.8613V51.3906L19.7719 51.434L17.1992 51.4629V48.8613V46.2598L19.7719 46.2887L22.3301 46.332V48.8613ZM22.4023 54.8594V56.0879H16.1875H9.97266V54.8594V53.6309H16.1875H22.4023V54.8594Z" fill="#4A4A4A"/>
<path d="M49.8488 37.1398L49.502 37.4145L49.4586 47.0836C49.4297 52.3879 49.4586 56.9551 49.502 57.2152C49.5453 57.4754 49.7188 57.8223 49.8777 57.9812C50.1379 58.2414 50.4125 58.2559 57.8848 58.2559C65.4293 58.2559 65.6172 58.2559 65.9063 57.9668C66.1953 57.6777 66.1953 57.4898 66.1953 47.5605C66.1953 37.6313 66.1953 37.4434 65.9063 37.1543C65.6172 36.8652 65.4293 36.8652 57.8992 36.8652C50.5137 36.8652 50.1668 36.8797 49.8488 37.1398ZM56.8008 41.5625V44.0918H54.1992H51.5977V41.5625V39.0332H54.1992H56.8008V41.5625ZM64.0273 41.5625V44.0918H61.498H58.9688V41.5625V39.0332H61.498H64.0273V41.5625ZM56.8008 48.8613V51.4629L54.2426 51.434L51.6699 51.3906L51.6266 49.0059C51.6121 47.7051 51.6266 46.5488 51.6555 46.4477C51.7133 46.3031 52.3348 46.2598 54.2715 46.2598H56.8008V48.8613ZM64.0273 48.8613V51.4629H61.498H58.9688V48.8613V46.2598H61.498H64.0273V48.8613ZM64.0273 54.8594V56.0879H57.8125H51.5977V54.8594V53.6309H57.8125H64.0273V54.8594Z" fill="#4A4A4A"/>
</svg>

<svg xmlns="http://www.w3.org/2000/svg" width="74" height="67" fill="none"><path fill="#4A4A4A" d="M12.545.79c-.376.101-.795.275-.94.376-.664.506-1.242 1.127-1.488 1.59-.144.274-1.676 4.307-3.396 8.96C5 16.372 3.498 20.39 3.382 20.635c-.173.448-.246.477-.853.477-.766 0-1.272.232-1.835.824-.578.607-.694 1.07-.694 2.76 0 1.23.058 1.648.275 2.053.404.752 1.185 1.315 1.95 1.402l.666.087.029 12.126.043 12.14.347.275c.433.361.896.347 1.373-.029l.376-.289V28.193h8.787c7.761 0 8.874-.029 9.51-.23.636-.218 1.373-.912 7.183-6.693L37 14.84l6.475 6.431c5.796 5.796 6.533 6.475 7.169 6.692.636.202 1.763.231 9.51.231h8.787v1.662c0 1.475.03 1.691.29 1.952.433.433 1.2.39 1.575-.087.26-.332.303-.593.303-1.937v-1.546l.65-.073c.825-.1 1.605-.679 1.966-1.474.203-.448.275-.94.275-2.067 0-1.618-.116-2.08-.694-2.688-.563-.592-1.07-.824-1.835-.824-.622 0-.68-.029-.868-.477-.1-.26-1.604-4.278-3.324-8.917-1.734-4.654-3.252-8.687-3.396-8.976-.333-.621-1.287-1.517-2.01-1.835C61.398.675 59.33.66 37.29.63 18.211.617 13.08.646 12.545.791m48.49 2.168c.26.101.579.318.709.463.202.23 6.62 17.257 6.62 17.575 0 .058-3.368.115-7.473.115h-7.487l-7.299-7.27C38.244 6.008 38.519 6.225 37 6.225s-1.243-.217-9.105 7.616l-7.3 7.27H13.11c-4.206 0-7.472-.058-7.472-.13 0-.318 6.403-17.315 6.62-17.56.606-.68-.333-.65 24.714-.665 19.599 0 23.674.029 24.065.202M45.05 15.793l7.415 7.414 9.654.072 9.64.073v2.601l-10.102.043c-9.915.03-10.103.03-10.565-.26-.26-.159-3.295-3.15-6.735-6.648s-6.46-6.504-6.736-6.663c-.346-.217-.607-.275-.881-.202-.26.057-2.746 2.442-7.27 6.952l-6.865 6.85-10.19-.029-10.175-.043v-2.601l9.64-.073 9.655-.072 7.415-7.414 7.4-7.4h1.3z"/><path fill="#4A4A4A" d="M35.15 22.398c-1.489.549-2.573 1.503-3.266 2.876-1.46 2.876-.203 6.417 2.76 7.804.752.347 1.012.39 2.356.39s1.604-.043 2.356-.39c2.356-1.098 3.743-3.7 3.295-6.157-.347-1.878-1.517-3.454-3.18-4.249-1.242-.607-3.107-.722-4.321-.274m3.382 2.24a3.48 3.48 0 0 1 1.865 2.168c.274.896.274 1.156-.015 2.096-.434 1.488-1.778 2.471-3.382 2.471-1.026 0-1.619-.217-2.37-.867-1.04-.925-1.446-2.284-1.04-3.642a3.552 3.552 0 0 1 4.942-2.226M69.23 35.42c-.289.289-.289.477-.289 12.357v12.069H46.25V37.487l-.332-.304-.333-.318H28.372l-.304.333-.318.332v22.316H5.059v-1.648c0-1.619-.015-1.662-.376-1.951-.506-.405-.997-.376-1.431.058-.347.332-.361.448-.361 1.95v1.59h-.94c-.997 0-1.705.246-1.864.651C.043 60.626 0 62 0 63.531c0 2.53.029 2.819.275 3.122L.549 67H73.45l.275-.347c.246-.303.275-.593.275-3.122 0-1.532-.043-2.905-.087-3.035-.159-.405-.867-.65-1.864-.65h-.94V47.864c0-11.895 0-11.967-.303-12.357-.376-.477-1.142-.52-1.575-.087M44.083 49.44v10.406H29.918V52.07l1.026-.058c.867-.043 1.07-.115 1.3-.39.362-.448.348-.997-.042-1.416-.26-.29-.448-.333-1.301-.333h-.983v-10.84h14.164zm27.75 14.019v1.445H2.168v-2.89h69.664z"/><path fill="#4A4A4A" d="M32.982 41.591c-.491.188-.607.853-.607 3.411 0 2.327.029 2.544.303 2.905l.29.376h8.064l.29-.376c.274-.36.303-.578.303-2.905 0-2.616-.116-3.208-.65-3.425-.29-.101-7.718-.101-7.993.014m6.475 3.296v1.228h-4.914v-2.457h4.914zM8.094 37.154c-.29.29-.29.477-.29 10.406s0 10.118.29 10.407c.274.274.477.289 7.963.289 4.727 0 7.762-.058 7.935-.145.55-.289.578-.751.578-10.55s-.029-10.262-.578-10.551c-.173-.087-3.208-.145-7.935-.145-7.486 0-7.689.015-7.963.29m6.937 4.408v2.53H9.972v-5.058999999999999h5.06zm7.371 0v2.53H17.2v-5.058999999999999h5.202999999999999zm-7.37 7.3v2.6h-5.06V46.26h5.06zm7.298 0v2.529l-2.558.043-2.573.029V46.26l2.573.029 2.558.043zm.072 5.997v1.229H9.973V53.63h12.429zM49.849 37.14l-.347.274-.043 9.67c-.03 5.304 0 9.871.043 10.131s.217.607.376.766c.26.26.535.275 8.007.275 7.544 0 7.732 0 8.021-.29.29-.288.29-.476.29-10.406s0-10.117-.29-10.406c-.289-.289-.477-.289-8.007-.289-7.385 0-7.732.015-8.05.275m6.952 4.422v2.53h-5.202999999999999v-5.058999999999999H56.8zm7.226 0v2.53h-5.058999999999999v-5.058999999999999h5.06zm-7.226 7.3v2.6l-2.558-.028-2.573-.043-.043-2.385c-.015-1.3 0-2.457.029-2.558.057-.145.679-.188 2.616-.188H56.8zm7.226 0v2.6h-5.058999999999999V46.26h5.06zm0 5.997v1.229H51.598V53.63h12.429z"/></svg>
